icons/svg/place_of_worship/jewish3.svg

<?xml version="1.0" encoding="UTF-8" standalone="no"?>
<!-- Created with Inkscape (http://www.inkscape.org/) -->

<svg
   xmlns:dc="http://purl.org/dc/elements/1.1/"
   xmlns:cc="http://creativecommons.org/ns#"
   xmlns:rdf="http://www.w3.org/1999/02/22-rdf-syntax-ns#"
   xmlns:svg="http://www.w3.org/2000/svg"
   xmlns="http://www.w3.org/2000/svg"
   xmlns:sodipodi="http://sodipodi.sourceforge.net/DTD/sodipodi-0.dtd"
   xmlns:inkscape="http://www.inkscape.org/namespaces/inkscape"
   version="1.0"
   width="580"
   height="580"
   id="svg2"
   sodipodi:version="0.32"
   inkscape:version="0.91 r13725"
   sodipodi:docname="jewish3.svg"
   inkscape:output_extension="org.inkscape.output.svg.inkscape">
  <metadata
     id="metadata2975">
    <rdf:RDF>
      <cc:Work
         rdf:about="">
        <dc:format>image/svg+xml</dc:format>
        <dc:type
           rdf:resource="http://purl.org/dc/dcmitype/StillImage" />
        <cc:license
           rdf:resource="http://web.resource.org/cc/PublicDomain" />
        <dc:language>en</dc:language>
      </cc:Work>
    </rdf:RDF>
  </metadata>
  <sodipodi:namedview
     inkscape:window-height="1051"
     inkscape:window-width="1920"
     inkscape:pageshadow="2"
     inkscape:pageopacity="0.0"
     guidetolerance="10.0"
     gridtolerance="10.0"
     objecttolerance="10.0"
     borderopacity="1.0"
     bordercolor="#666666"
     pagecolor="#ffffff"
     id="base"
     inkscape:zoom="0.92167712"
     inkscape:cx="235.40207"
     inkscape:cy="261.01172"
     inkscape:window-x="0"
     inkscape:window-y="0"
     inkscape:current-layer="svg2"
     showgrid="false"
     inkscape:window-maximized="1" />
  <defs
     id="defs4">
    <inkscape:perspective
       sodipodi:type="inkscape:persp3d"
       inkscape:vp_x="0 : 290 : 1"
       inkscape:vp_y="0 : 1000 : 0"
       inkscape:vp_z="580 : 290 : 1"
       inkscape:persp3d-origin="290 : 193.33333 : 1"
       id="perspective2441" />
    <inkscape:perspective
       id="perspective2466"
       inkscape:persp3d-origin="372.04724 : 350.78739 : 1"
       inkscape:vp_z="744.09448 : 526.18109 : 1"
       inkscape:vp_y="0 : 1000 : 0"
       inkscape:vp_x="0 : 526.18109 : 1"
       sodipodi:type="inkscape:persp3d" />
    <inkscape:perspective
       id="perspective3333"
       inkscape:persp3d-origin="372.04724 : 350.78739 : 1"
       inkscape:vp_z="744.09448 : 526.18109 : 1"
       inkscape:vp_y="0 : 1000 : 0"
       inkscape:vp_x="0 : 526.18109 : 1"
       sodipodi:type="inkscape:persp3d" />
    <inkscape:perspective
       id="perspective3401"
       inkscape:persp3d-origin="372.04724 : 350.78739 : 1"
       inkscape:vp_z="744.09448 : 526.18109 : 1"
       inkscape:vp_y="0 : 1000 : 0"
       inkscape:vp_x="0 : 526.18109 : 1"
       sodipodi:type="inkscape:persp3d" />
    <inkscape:perspective
       id="perspective3464"
       inkscape:persp3d-origin="372.04724 : 350.78739 : 1"
       inkscape:vp_z="744.09448 : 526.18109 : 1"
       inkscape:vp_y="0 : 1000 : 0"
       inkscape:vp_x="0 : 526.18109 : 1"
       sodipodi:type="inkscape:persp3d" />
    <inkscape:perspective
       id="perspective3581"
       inkscape:persp3d-origin="225 : 150 : 1"
       inkscape:vp_z="450 : 225 : 1"
       inkscape:vp_y="0 : 1000 : 0"
       inkscape:vp_x="0 : 225 : 1"
       sodipodi:type="inkscape:persp3d" />
    <inkscape:perspective
       id="perspective4312"
       inkscape:persp3d-origin="225 : 150 : 1"
       inkscape:vp_z="450 : 225 : 1"
       inkscape:vp_y="0 : 1000 : 0"
       inkscape:vp_x="0 : 225 : 1"
       sodipodi:type="inkscape:persp3d" />
  </defs>
  <g
     id="g1327">
    <path
       d="M 66.275,1.768 C 24.94,1.768 1.704,23.139 1.704,66.804 L 1.704,516.927 C 1.704,557.771 22.599,579.156 63.896,579.156 L 515.92,579.156 C 557.227,579.156 578.149,558.841 578.149,516.927 L 578.149,66.804 C 578.149,24.203 557.227,1.768 514.628,1.768 C 514.624,1.768 66.133,1.625 66.275,1.768 z "
       style="fill:#111;stroke:#eee;stroke-width:3.40799999"
       id="path1329" />
  </g>
  <path
     style="fill:#ffffff;fill-opacity:1"
     d="m 249.6671,485.91905 -36.49173,-63.31462 -71.79642,-0.0329 c -44.743767,-0.0205 -72.711189,-1.51292 -74.224139,-3.96094 -1.335251,-2.16049 13.44724,-31.52805 32.849989,-65.26131 24.05942,-41.82925 34.45967,-63.48338 32.70535,-68.09498 -1.41482,-3.71901 -17.16358,-31.98093 -34.997336,-62.80421 -17.833699,-30.82332 -32.424921,-58.04807 -32.424921,-60.49941 0,-3.22735 20.400658,-4.45848 73.943747,-4.46225 l 73.94373,-0.005 36.39038,-63.375168 c 20.01472,-34.856332 37.61469,-63.375155 39.11107,-63.375155 4.10398,0 14.35108,15.892209 47.67807,73.943743 l 30.32188,52.81694 74.01767,0 c 56.74294,0 73.97846,1.1206 73.84967,4.80156 -0.0924,2.64083 -16.22604,32.40494 -35.85253,66.14245 l -35.68448,61.34089 35.85248,62.11162 c 19.71891,34.16136 35.85253,64.0324 35.85253,66.38006 0,2.98284 -22.29418,4.26852 -74.01767,4.26852 l -74.01767,0 -30.32188,52.81694 c -33.16343,57.76665 -43.58776,73.96094 -47.57672,73.91095 -1.44066,-0.0181 -19.04064,-28.52453 -39.11107,-63.34756 z m 53.49531,-37.91961 c 6.4931,-11.34874 11.80564,-21.72006 11.80564,-23.04741 0,-1.32733 -11.23561,-2.41331 -24.96802,-2.41331 -13.73242,0 -24.96801,1.08598 -24.96801,2.41331 0,3.1237 23.18251,43.68148 24.96801,43.68148 0.74622,0 6.66931,-9.28534 13.16238,-20.63407 z M 175.87394,357.28333 C 168.9249,344.63231 162.37506,334.2815 161.3187,334.2815 c -1.05634,0 -7.60616,10.35081 -14.55519,23.00183 l -12.63458,23.00181 27.18977,0 27.18979,0 -12.63455,-23.00181 z m 180.7142,-2.92651 c 8.2887,-14.2606 19.95117,-34.72756 25.91665,-45.48215 l 10.84625,-19.55385 -24.88365,-43.8265 -24.88362,-43.82651 -53.41275,0 -53.41272,0 -24.27547,41.80305 c -13.35152,22.99166 -24.27549,43.62429 -24.27549,45.85021 0,3.98023 39.82628,76.78174 47.13551,86.16254 2.66016,3.41408 18.54072,4.80153 54.95806,4.80153 l 51.21689,0 15.07034,-25.92832 z m 76.64836,2.92651 c -6.94903,-12.65102 -13.49885,-23.00183 -14.55519,-23.00183 -1.05636,0 -7.6062,10.35081 -14.55523,23.00183 l -12.63452,23.00181 27.18975,0 27.18977,0 -12.63458,-23.00181 z m -257.61557,-134.55265 12.3816,-22.98349 -26.93679,0 -26.93681,0 12.63458,23.00184 c 6.94903,12.651 13.49885,22.99354 14.55519,22.98343 1.05636,-0.0101 7.49234,-10.3609 14.30223,-23.00178 z m 257.36257,0 12.38162,-22.98349 -26.9368,0 -26.93676,0 12.63452,23.00184 c 6.94903,12.651 13.49887,22.99354 14.55523,22.98343 1.05634,-0.0101 7.4923,-10.3609 14.30219,-23.00178 z M 314.96805,155.0803 c 0,-3.12368 -23.18254,-43.68146 -24.96802,-43.68146 -1.7855,0 -24.96801,40.55778 -24.96801,43.68146 0,1.32733 11.23559,2.41332 24.96801,2.41332 13.73241,0 24.96802,-1.08599 24.96802,-2.41332 z"
     id="path6812"
     sodipodi:nodetypes="cccssssscccscccscccscccsccssssccscccccccccccccssccccsccccccccccsccccccsccsssc"
     inkscape:connector-curvature="0" />
</svg>

<svg width="580" height="580" viewBox="0 0 580 580" fill="none" xmlns="http://www.w3.org/2000/svg">
<g clip-path="url(#clip0)">
<path d="M66.275 1.76802C24.94 1.76802 1.70398 23.139 1.70398 66.804V516.927C1.70398 557.771 22.599 579.156 63.896 579.156H515.92C557.227 579.156 578.149 558.841 578.149 516.927V66.804C578.149 24.203 557.227 1.76802 514.628 1.76802C514.624 1.76802 66.133 1.62502 66.275 1.76802Z" fill="#111111" stroke="#EEEEEE" stroke-width="3.408"/>
<path d="M249.667 485.919L213.175 422.604L141.379 422.572C96.6351 422.551 68.6677 421.059 67.1548 418.611C65.8195 416.45 80.602 387.083 100.005 353.349C124.064 311.52 134.464 289.866 132.71 285.254C131.295 281.535 115.547 253.273 97.7128 222.45C79.8791 191.627 65.2878 164.402 65.2878 161.951C65.2878 158.723 85.6885 157.492 139.232 157.488L213.175 157.483L249.566 94.1082C269.58 59.2519 287.18 30.7331 288.677 30.7331C292.781 30.7331 303.028 46.6253 336.355 104.677L366.677 157.494H440.694C497.437 157.494 514.673 158.614 514.544 162.295C514.452 164.936 498.318 194.7 478.692 228.438L443.007 289.779L478.86 351.89C498.578 386.052 514.712 415.923 514.712 418.27C514.712 421.253 492.418 422.539 440.694 422.539H366.677L336.355 475.356C303.191 533.122 292.767 549.317 288.778 549.267C287.337 549.249 269.737 520.742 249.667 485.919V485.919ZM303.162 447.999C309.655 436.651 314.968 426.279 314.968 424.952C314.968 423.625 303.732 422.539 290 422.539C276.268 422.539 265.032 423.625 265.032 424.952C265.032 428.076 288.214 468.634 290 468.634C290.746 468.634 296.669 459.348 303.162 447.999V447.999ZM175.874 357.283C168.925 344.632 162.375 334.281 161.319 334.281C160.262 334.281 153.712 344.632 146.763 357.283L134.129 380.285H161.319H188.508L175.874 357.283ZM356.588 354.357C364.877 340.096 376.539 319.629 382.505 308.875L393.351 289.321L368.467 245.494L343.584 201.668H290.171H236.758L212.483 243.471C199.131 266.462 188.207 287.095 188.207 289.321C188.207 293.301 228.034 366.103 235.343 375.484C238.003 378.898 253.884 380.285 290.301 380.285H341.518L356.588 354.357V354.357ZM433.236 357.283C426.287 344.632 419.738 334.281 418.681 334.281C417.625 334.281 411.075 344.632 404.126 357.283L391.491 380.285H418.681H445.871L433.236 357.283ZM175.621 222.731L188.002 199.747H161.066H134.129L146.763 222.749C153.712 235.4 160.262 245.743 161.319 245.732C162.375 245.722 168.811 235.372 175.621 222.731V222.731ZM432.983 222.731L445.365 199.747H418.428H391.491L404.126 222.749C411.075 235.4 417.625 245.743 418.681 245.732C419.738 245.722 426.174 235.372 432.983 222.731V222.731ZM314.968 155.08C314.968 151.957 291.785 111.399 290 111.399C288.214 111.399 265.032 151.957 265.032 155.08C265.032 156.408 276.268 157.494 290 157.494C303.732 157.494 314.968 156.408 314.968 155.08Z" fill="white"/>
</g>
<defs>
<clipPath id="clip0">
<path d="M0 0H580V580H0V0Z" fill="white"/>
</clipPath>
</defs>
</svg>
